X: 7369
T: Cliffs, The
R: hornpipe
M: 4/4
K: Dmajor
|:F>E|D>FA>F E>GB>G|F>Ad>A f>dA>F|G>Bd>c B>eg>f|(3efe (3dcB (3ABA (3GFE|
D>FA>F E>GB>G|F>Ad>e f>dA>F|G>Bd>c B>ge>c|d2 d2 d2:|
|:c>d|e>A (3B/A/^GA f>A (3B/A/GA|g>Af>A e>A (3B/A/^GA|g>Af>A e>Ad>f|
(3efe (3dcB (3ABA (3GFE|D>FA>F E>GB>G|F>Ad>e f>dA>F|G>Bd>c B>ge>c|d2 d2 d2:|

